X:8547
%17825
T:Tripping Up Stairs
S:Laurie Griffiths, abc-users, 9/97 
C:Air Trad, Harmony Laurie Griffiths (distribute freely)
L:1/8
M:6/8
K:Cmaj
V:1
Q:1/4=368
"C"EGG "F"FAA |\
"C"Gcd edc |\
"G"BAB GAB |\
"C"ced cGF |\
"C"EGG "F"FAA |\
"C"Gcd edc |\
"G"BAB GAB |\
"C"ced c3 :|
